!!!!SEGMENT: pl-wnifc--6020-n--003_monfreulle-roza-eleonora--polonez.krn
!!!cenid: 18xx:3869
!!!COM: Monfreulle, Róża Eleonora
!!!COM-rismID: pe50044871
!!!CDT: 1787-1853
!!!CNT: Poland
!!!OTL: 16 Polonaises
!!!PDT:
!!!AGN:
!!!SMS-siglum: PL-Wnifc
!!!SMS-shelfmark: 6020/n
!!!SMS-variant:
!!!SMS-altvar:
!!!SMS-shelfwork: 010 W
!!!NIFC-rismSourceID: 1001157350
!!!NIFC-rismChildID: 1001157362
!!!NIFC-islandoraID: nifc:212371
!!!URL-pdf-islandora: https://repozytorium.nifc.pl/islandora/object/nifc%3A212371/datastream/PDF/view
!!!URL-scan: https://polish.musicsources.pl/pl/lokalizacje/galeria/druki-muzyczne/16843 @EN{Scan on Polish Music Sources Website} @PL{Skany w portalu Dziedzictwo Muzyki Polskiej w otwartym dostępie}
!!!ONB-nifc: UWAGA: s. 8
!!!AIN: 1 piano
!!!key: G
**kern	**kern	**dynam
*part1	*part1	*part1
*staff2	*staff1	*
*[A,A,B,B,A,C,D,D,E,D,E]	*[A,A,B,B,A,C,D,D,E,D,E]	*
*>A	*>A	*
*I"[Piano]	*I"[Piano]	*
*I'	*I'	*
*Ipiano	*Ipiano	*
*ICklav	*ICklav	*
*clefF4	*clefG2	*
*k[f#]	*k[f#]	*
*G:	*G:	*
*M3/4	*M3/4	*
=1	=1	=1
!	!LO:TX:a:i:t=Polonez	!
8BL 8G\	4.dd\	pp
8d\J	.	.
*rep	*	*
8BL 8G\	.	.
.	8qee/	.
8d\J	16dd\LL	.
.	16cc#X\JJ	.
*Xrep	*	*
*rep	*	*
8BL 8G\	8dd\L	.
.	8qee/	.
8d\J	16dd\L	.
.	16cc#\JJ	.
*Xrep	*	*
=2	=2	=2
8AL 8F#\	8.dd/L	.
8d\J	.	.
.	8a/J	.
*rep	*	*
8AL 8F#\	.	.
.	4.a/	.
8d\J	.	.
*Xrep	*	*
8F#L 8D#X\	.	.
8B\J	.	.
.	16b/	.
=3	=3	=3
8GL 8E\	4.g/	.
8B\J	.	.
*rep	*	*
8GL 8E\	.	.
!	!LO:TX:t=P:problem=turn (inverted) with vertical line:global	!
8B\J	8gsS/	.
*Xrep	*	*
8dL 8F#\	8ccL 8a/	.
8dJ 8G\	8bJ 8g/	.
=4	=4	=4
*^	*	*
8F#/L	8D\L	8asS/L	.
8G/J	8D\J	16b/L	.
.	.	16g/JJ	.
8F#/L	8D\L	8a/L	.
8G/J	8D\J	16b/L	.
.	.	16g/JJ	.
8F#/	8D\	16a/LL	.
.	.	16b/	.
8r	8ryy	16cc/	.
.	.	16cc#X/JJ	.
*v	*v	*	*
=5	=5	=5
.	8qqdd/	.
16BLL 16G\	4.ddd\	ff
16d\	.	.
16B 16G\	.	.
16d\JJ	.	.
*rep	*	*
16BLL 16G\	.	.
16d\	.	.
.	8qeee/	.
16B 16G\	16ddd\LL	.
16d\JJ	16ccc#X\JJ	.
*Xrep	*	*
*rep	*	*
16BLL 16G\	8ddd\L	.
16d\	.	.
.	8qqeee/	.
16B 16G\	16ddd\L	.
16d\JJ	16ccc#\JJ	.
*Xrep	*	*
=6	=6	=6
16ALL 16F#\	4ddd\	.
16d\	.	.
16A 16F#\	.	.
16d\JJ	.	.
*rep	*	*
16ALL 16F#\	4aa\	.
16d\	.	.
16A 16F#\	.	.
16d\JJ	.	.
*Xrep	*	*
16BLL 16G\	4bb\	.
16d\	.	.
16B 16G\	.	.
16d\JJ	.	.
=7	=7	=7
16ELL 16C\	4aa\	.
16A\	.	.
16E 16C\	.	.
16A\JJ	.	.
*rep	*	*
16ELL 16C\	8ee\L	.
16A\	.	.
16E 16C\	(16ddd#X\L	.
16A\JJ	16eee\JJ	.
*Xrep	*	*
*rep	*	*
16ELL 16C\	16dddn\LL	.
16A\	16ccc\	.
16E 16C\	16bb\	.
16A\JJ	16aa\JJ)	.
*Xrep	*	*
!!LO:LB:g=original
=8	=8	=8
8BL 8D\	(16gg\LL	.
.	16ff#\	.
8cJ 8D\	16aa\	.
.	16ff#\JJ)	.
*	*2\right	*
8r	2gg\	.
8c 8D\	.	.
4B 4G;\	.	.
=9:|!|:	=9:|!|:	=9:|!|:
*>B	*>B	*
8cL 8F#\	4aa\	.
8d\J	.	.
*rep	*	*
8cL 8F#\	(16gg#X\LL	.
.	16aa\	.
8d\J	16bb\	.
.	16aa\JJ	.
*Xrep	*	*
*rep	*	*
8cL 8F#\	16ggn\LL	.
.	16ff#\	.
8d\J	16ee\	.
.	16dd\JJ)	.
*Xrep	*	*
=10	=10	=10
8BL 8G\	16dd\LL	.
.	16bb\	.
8d\J	16ff#\	.
.	16gg\JJ	.
*rep	*	*
8BL 8G\	4.gg\	.
8d\J	.	.
*Xrep	*	*
8FnL 8D\	.	.
8B\J	8gg#X\	.
=11	=11	=11
8EL 8C\	16gg#X\LL	.
.	16aa\	.
8A\J	16ddd#X\	.
.	16eee\JJ	.
8CL 8AA/	16dddn\LL	.
.	16ccc\	.
8E/J	16bb\	.
.	16aa\JJ	.
8EL 8C#X 8AA#X/	16ggn\LL	.
.	16ff#\	.
8G/J	16gg\	.
.	16ee\JJ	.
=12	=12	=12
8F#L 8BB\	4dd#X\	.
8B\J	.	.
!LO:TX:t=P:problem=mixed beam	!	!
8BB/L	8r	.
8B\J	(16b/LL	.
.	16a#X/JJ	.
!LO:TX:t=P:problem=mixed beam	!	!
8BB/L	16b\LL	.
.	16cc#X\	.
8AnJ 8F#\	16dd#X\	.
.	16b\JJ)	.
=13	=13	=13
8GL 8E/	4.ee\	.
*clefG2	*	*
8gJ 8e/	.	.
*tremolo	*	*
8gL 8e/	.	.
.	8qff#/	.
8g 8e/	16ee\LL	.
.	16dd#X\JJ	.
8g 8e/	8ee\L	.
.	8qff#/	.
8gJ 8e/	16ee\L	.
.	16dd#X\JJ	.
*Xtremolo	*	*
=14	=14	=14
8gL 8e/	8ee\L	.
!	!LO:SIC:v:s=8qddd#/	!
.	8qddd/	.
8b/J	8eee\J	.
*rep	*	*
8gL 8e/	4bb\	.
8b/J	.	.
*Xrep	*	*
*rep	*	*
8gL 8e/	8r	.
8b/J	16gg\LL	.
.	16bb\JJ	.
*Xrep	*	*
!!LO:LB:g=original
=15	=15	=15
8f#L 8d#X/	16bb\LL	.
.	16aa\JJ	.
8b/J	4aa\	.
*rep	*	*
8f#L 8d#/	.	.
8b/J	8ff#\	.
*Xrep	*	*
8aL 8f#/	8dd#X\L	.
8b/J	8bb\J	.
=16	=16	=16
8gL 8e/	8ee\L	.
8b/J	8gg\J	.
.	8qgg/	.
!	!LO:TX:b:i:t=Pol&colon; da ca po	!
8aL 8d#X 8B/	16ff#\LL	.
.	16ee\	.
8aJ 8d# 8B/	16ff#\	.
.	16gg\JJ	.
4g 4e/	4ee\	.
=17||	=17||	=17||
*>C	*>C	*
*clefF4	*clefG2	*
*M3/4	*M3/4	*
!	!LO:TX:a:Bi:t=Trio	!
16G\LL	4.b\	.
16d\	.	.
16c#X\	.	.
16d\JJ	.	.
16e\LL	.	.
16d\	.	.
16c#\	8b\	f
16d\JJ	.	.
8F#\L	16a\LL	.
.	16dd\	.
8d\J	16cc#X\	.
.	16dd\JJ	.
=18	=18	=18
8GL 8E\	16r	.
.	16e/LL	.
8B\J	16g/	.
.	16b/JJ	.
*rep	*	*
8GL 8E\	16ee\LL	.
.	16b\	.
8B\J	16gg\	.
.	16ee\JJ	.
*Xrep	*	*
*rep	*	*
8GL 8E\	16bb\LL	.
.	16gg\	.
8B\J	16ee\	.
.	16b\JJ	.
*Xrep	*	*
=19	=19	=19
16F#LL 16D#X\	4.aa\	.
16B\	.	.
16A#X\	.	.
16B\JJ	.	.
16c\LL	.	.
16B\	.	.
16A#\	8ff#\	.
16B\JJ	.	.
!!LO:LB:g=original
=-	=-	=-
16F#\LL	8dd#X\L	.
16B\	.	.
16D#X\	16bb\L	.
16B\JJ	16aa\JJ	.
=20	=20	=20
8GL 8E\	16gg\LL	.
.	16ff#\	.
8B\J	16gg\	.
.	16ee\JJ	.
8BB/L	4bb 4dd#X 4b\	.
16BB/L	.	.
16AA#X/JJ	.	.
16BB/LL	4r	.
16C#X/	.	.
16D#X/	.	.
16BB/JJ	.	.
!LO:TX:b:t=[segno]:problem=znak segno na kresce taktowej	!LO:TX:a:t=[segno]:problem=znak segno na kresce taktowej	!
=21||	=21||	=21||
*>D	*>D	*
4E 4EE/	8r	.
.	16eeeLL 16gg#X 16ee\	ff
.	16eeeJJ 16gg# 16ee\	.
8r	8eeeL 8gg# 8ee\	.
8EL 8EE/	8eeeJ 8gg# 8ee'\	.
8G#X 8GG/	8eeeL 8bb 8ee'\	.
8EJ 8EE/	8dddnJ 8gg# 8ee'\	.
=22	=22	=22
4A 4AA/	8.dddL 8.bb 8.ee\	.
.	16cccJk 16aa 16ee\	.
16r	4ccc 4aa 4ee\	.
16AA/LL	.	.
16C/	.	.
16E/JJ	.	.
16A/LL	8r	.
16E/	.	.
16C/	8aa 8ee\	.
16AA/JJ	.	.
=23	=23	=23
!LO:TX:t=P:problem=mixed beam	!	!
16BB/LL	8ff#L 8dd#X\	.
16B\	.	.
16A#X\	8bb\J	.
16B\JJ	.	.
8F#L 8D#X'\	16r	.
.	16aa#X\LL	.
8B'\J	16bb\	.
.	16aa#\JJ	.
8D#L 8BB\	16bb\LL	.
.	16aan\	.
8B\J	16gg\	.
.	16ff#\JJ	.
=24	=24	=24
8GL 8E\	16ee\LL	.
.	16gg\	.
8B\J	16ff#\	.
.	16ee\JJ	.
8BB/L	16dd#X\LL	.
.	16ff#\	.
8A/J	16bb\	.
.	16dd#\JJ	.
4G 4E\	4ee\	.
=25:|!|:	=25:|!|:	=25:|!|:
*>E	*>E	*
8BL 8G\	4.gg\	.
8d\J	.	.
*rep	*	*
8BL 8G\	.	.
8d\J	8ff#sS\	.
*Xrep	*	*
*rep	*	*
8BL 8G\	8gg\L	.
8d\J	8gg#X\J	.
*Xrep	*	*
=26	=26	=26
8cnL 8F#\	8aa\L	.
8d\J	16ddd\L	.
.	16ccc#X\JJ	.
*rep	*	*
8cL 8F#\	16ddd\LL	.
.	16aa\	.
8d\J	16ff#\	.
.	16dd\JJ	.
*Xrep	*	*
!!LO:LB:g=original
=-	=-	=-
!	!LO:TUP:a:r=2:problem:klamra łukowa	!
8cnL 8F#\	24cc#X\LL	.
.	24dd\	.
.	24ee\JJ	.
8d\J	24ff#\LL	.
.	24gg\	.
.	24gg#X\JJ	.
=27	=27	=27
8cL 8F#\	(16aa\LL	.
.	16ggn\)	.
8d\J	(16gg\	.
.	16ff#\JJ)	.
8cL 8A\	(16ff#\LL	.
.	16ee\)	.
8d\J	(16ee\	.
.	16dd\JJ)	.
*rep	*	*
8cL 8A\	(16dd\LL	.
.	16dd#X\	.
8d\J	16ee\	.
.	16cc\JJ)	.
*Xrep	*	*
=28	=28	=28
8G\L	16cc\LL	.
.	16b\	.
8d\	16ee\	.
.	16dd\JJ	.
8B\	4.dd\	.
8d\	.	.
8B\	.	.
8G\J	8dd#X\	.
*clefG2	*	*
=29	=29	=29
8r	8.ee\L	.
8e 8c/	.	.
.	16cc\Jk	.
8eL 8c/	4a/	.
8eJ 8c/	.	.
!	!LO:TUP:b:r=2:problem:klamra łukowa	!
8eL 8c/	24g#X/LL	.
.	24a/	.
!	!LO:SIC:v:s=24a#JJ	!
.	24b/JJ	.
8eJ 8c/	24bn/LL	.
.	24cc/	.
.	24cc#X/JJ	.
=30	=30	=30
8r	16dd\LL	.
.	16cc#X\	.
8d 8B/	16dd\	.
.	16b\JJ	.
*tremolo	*	*
8dL 8B/	4.g/	.
8d 8B/	.	.
8d 8B/	.	.
8dJ 8B/	8b/	.
*Xtremolo	*	*
=31	=31	=31
8r	8b\L	.
8e 8c/	8a\J	.
*tremolo	*	*
8eL 8c/	8r	.
8e 8c/	(16dd#X\LL	.
.	16ee\JJ	.
8e 8c/	16ddn\LL	.
.	16cc\	.
8eJ 8c/	16b\	.
.	16a\JJ)	.
*Xtremolo	*	*
=32	=32	=32
*clefF4	*	*
!	!	!LO:DY:b=2
8d\L	(16g/LL	pp
.	16f#/	.
8D\J	16b/	.
.	16a/JJ	.
8r	4a/)	.
8c 8F# 8D\	.	.
!	!	!LO:DY:b=2
8BL 8G\	8g/	ff
16B\L	8r	.
16G#X\JJ	.	.
!	!LO:TX:b:i:t=dal Segno	!
!LO:TX:b:t=[segno]:problem=znak segno na kresce taktowej	!LO:TX:a:t=[segno]:problem=znak segno na kresce taktowej	!
==	==	==
*-	*-	*-
!!!system-decoration: {(*)}
!!!RDF**dynam: f = "F"
!!!RDF**dynam: ff = "FF"
!!!ENC: Mateusz Solarz
!!!END: 2022-07-26
!!!ENC: Andrzej Kubiczek
!!!END: 2022-08-23
!!!YEC: Copyright 2022 Narodowy Instytut Fryderyka Chopina (https://polishscores.org)
!!!YEM: License CC-BY-4.0 (https://creativecommons.org/licenses/by/4.0)
